papirus/48x48/apps/skydrive.svg

<svg height="48" width="48" xmlns="http://www.w3.org/2000/svg"><path d="m20 8c-4.1421 0-7.6694 2.5358-9.1875 6.125-3.8557.5732-6.8125 3.8598-6.8125 7.875 0 4.4183 3.5817 8 8 8h17c3.866 0 7-3.134 7-7 0-3.5931-2.7016-6.5374-6.1875-6.9375-.90914-4.5868-4.9588-8.0625-9.8125-8.0625z" fill="#a1bde8"/><path d="m20 8c-4.1421 0-7.6694 2.5358-9.1875 6.125-3.8557.5732-6.8125 3.8598-6.8125 7.875 0 .158829.01431.314163.02344.470703.247312-3.771058 3.104764-6.797984 6.78906-7.345703 1.5181-3.5892 5.0454-6.125 9.1875-6.125 4.8537 0 8.90336 3.4757 9.8125 8.0625 3.314022.380372 5.913263 3.06138 6.162109 6.412109.010623-.157743.025391-.314173.025391-.474609 0-3.5931-2.7016-6.5374-6.1875-6.9375-.90914-4.5868-4.9588-8.0625-9.8125-8.0625z" fill="#fff" opacity=".1"/><path d="m4.023438 21.470703c-.011506.175441-.023438.350802-.023438.529297 0 4.4183 3.5817 8 8 8h17c3.866 0 7-3.134 7-7 0-.177164-.01248-.351608-.02539-.525391-.245359 3.643365-3.269046 6.525391-6.97461 6.525391h-17c-4.259471 0-7.731729-3.331232-7.976562-7.529297z" opacity=".2"/><path d="m28 18c-4.1421 0-7.6694 2.5358-9.1875 6.125-3.8557.5732-6.8125 3.8598-6.8125 7.875 0 4.4183 3.5817 8 8 8h17c3.866 0 7-3.134 7-7 0-3.5931-2.7016-6.5374-6.1875-6.9375-.90914-4.5868-4.9588-8.0625-9.8125-8.0625z" fill="#5481c5"/><path d="m12.023438 31.470703c-.011506.175441-.023438.350802-.023438.529297 0 4.4183 3.5817 8 8 8h17c3.866 0 7-3.134 7-7 0-.177164-.01248-.351608-.02539-.525391-.245359 3.643365-3.269046 6.525391-6.97461 6.525391h-17c-4.259471 0-7.731729-3.331232-7.976562-7.529297z" opacity=".3"/></svg>

<?xml version="1.0" encoding="UTF-8" standalone="no"?>
<!-- Created with Inkscape (http://www.inkscape.org/) -->

<svg
   xmlns:dc="http://purl.org/dc/elements/1.1/"
   xmlns:cc="http://creativecommons.org/ns#"
   xmlns:rdf="http://www.w3.org/1999/02/22-rdf-syntax-ns#"
   xmlns:svg="http://www.w3.org/2000/svg"
   xmlns="http://www.w3.org/2000/svg"
   xmlns:sodipodi="http://sodipodi.sourceforge.net/DTD/sodipodi-0.dtd"
   xmlns:inkscape="http://www.inkscape.org/namespaces/inkscape"
   id="svg2817"
   height="48"
   width="48"
   version="1.0"
   inkscape:version="0.91 r13725"
   sodipodi:docname="skydrive.svg">
  <defs
     id="defs14" />
  <sodipodi:namedview
     pagecolor="#ffffff"
     bordercolor="#666666"
     borderopacity="1"
     objecttolerance="10"
     gridtolerance="10"
     guidetolerance="10"
     inkscape:pageopacity="0"
     inkscape:pageshadow="2"
     inkscape:window-width="1600"
     inkscape:window-height="847"
     id="namedview12"
     showgrid="false"
     inkscape:zoom="8.08"
     inkscape:cx="24"
     inkscape:cy="24"
     inkscape:window-x="0"
     inkscape:window-y="0"
     inkscape:window-maximized="1"
     inkscape:current-layer="svg2817" />
  <metadata
     id="metadata57">
    <rdf:RDF>
      <cc:Work
         rdf:about="">
        <dc:format>image/svg+xml</dc:format>
        <dc:type
           rdf:resource="http://purl.org/dc/dcmitype/StillImage" />
        <dc:title></dc:title>
      </cc:Work>
    </rdf:RDF>
  </metadata>
  <path
     style="fill:#a1bde8;fill-opacity:1"
     inkscape:connector-curvature="0"
     d="M 20,8 C 15.8579,8 12.3306,10.5358 10.8125,14.125 6.9568,14.6982 4,17.9848 4,22 c 0,4.4183 3.5817,8 8,8 l 17,0 c 3.866,0 7,-3.134 7,-7 0,-3.5931 -2.7016,-6.5374 -6.1875,-6.9375 C 28.90336,11.4757 24.8537,8 20,8 Z"
     id="path4173" />
  <path
     inkscape:connector-curvature="0"
     id="path4193"
     d="M 20,8 C 15.8579,8 12.3306,10.5358 10.8125,14.125 6.9568,14.6982 4,17.9848 4,22 4,22.158829 4.01431,22.314163 4.02344,22.470703 4.270752,18.699645 7.128204,15.672719 10.8125,15.125 12.3306,11.5358 15.8579,9 20,9 c 4.8537,0 8.90336,3.4757 9.8125,8.0625 3.314022,0.380372 5.913263,3.06138 6.162109,6.412109 C 35.985232,23.316866 36,23.160436 36,23 36,19.4069 33.2984,16.4626 29.8125,16.0625 28.90336,11.4757 24.8537,8 20,8 Z"
     style="opacity:0.1;fill:#ffffff;fill-opacity:1" />
  <path
     inkscape:connector-curvature="0"
     id="path4195"
     d="M 4.023438,21.470703 C 4.011932,21.646144 4,21.821505 4,22 c 0,4.4183 3.5817,8 8,8 l 17,0 c 3.866,0 7,-3.134 7,-7 0,-0.177164 -0.01248,-0.351608 -0.02539,-0.525391 C 35.729251,26.117974 32.705564,29 29,29 L 12,29 C 7.740529,29 4.268271,25.668768 4.023438,21.470703 Z"
     style="opacity:0.2;fill:#000000;fill-opacity:1" />
  <path
     id="path5884-5"
     d="m 28,18 c -4.1421,0 -7.6694,2.5358 -9.1875,6.125 C 14.9568,24.6982 12,27.9848 12,32 c 0,4.4183 3.5817,8 8,8 l 17,0 c 3.866,0 7,-3.134 7,-7 0,-3.5931 -2.7016,-6.5374 -6.1875,-6.9375 C 36.90336,21.4757 32.8537,18 28,18 Z"
     inkscape:connector-curvature="0"
     style="fill:#5481c5;fill-opacity:1" />
  <path
     inkscape:connector-curvature="0"
     style="opacity:0.3;fill:#000000;fill-opacity:1"
     d="M 12.023438,31.470703 C 12.011932,31.646144 12,31.821505 12,32 c 0,4.4183 3.5817,8 8,8 l 17,0 c 3.866,0 7,-3.134 7,-7 0,-0.177164 -0.01248,-0.351608 -0.02539,-0.525391 C 43.729251,36.117974 40.705564,39 37,39 l -17,0 c -4.259471,0 -7.731729,-3.331232 -7.976562,-7.529297 z"
     id="path4182" />
</svg>
